rospo-icon-theme-classic-common/64x64/apps/tegaki-recognize.svg

<svg height="64" width="64" xmlns="http://www.w3.org/2000/svg"><rect height="58" opacity=".2" rx="2.9" width="58" x="3" y="4"/><rect fill="#e4e4e4" height="58" rx="2.9" width="58" x="3" y="3"/><g fill="none" stroke-linecap="round" stroke-linejoin="round" stroke-width="6"><path d="m31.999966 12.999334v13.999321m-13.999966-5.999322h28m-20 24h12m-6.000034 7.99994v-31.58c4.760948 7.71342 8.527244 19.781164 18.000034 21.6m-17.971752 9.94012v-31.579998c-4.760948 7.71342-8.55546 19.781162-18.028248 21.599998" opacity=".1" stroke="#000"/><g stroke="#3f3f3f"><path d="m31.999966 51.99994v-31.58c4.760948 7.71342 8.527244 19.781164 18.000034 21.6m-17.971752 9.94012v-31.579999c-4.760948 7.713421-8.55546 19.781163-18.028248 21.599999"/><path d="m26 44h12"/><path d="m18 20h28"/><path d="m31.999966 12v13.999322"/></g></g><path d="m5.8984375 3c-1.6066 0-2.8984375 1.2918375-2.8984375 2.8984375v1c0-1.6066 1.2918375-2.8984375 2.8984375-2.8984375h52.2031245c1.606601 0 2.898438 1.2918375 2.898438 2.8984375v-1c0-1.6066-1.291837-2.8984375-2.898438-2.8984375z" fill="#fff" opacity=".2"/></svg>

<svg xmlns="http://www.w3.org/2000/svg" width="64" height="64" version="1">
 <rect width="58" height="58" x="3" y="4" rx="2.9" ry="2.9" style="opacity:0.2"/>
 <rect style="fill:#cccccc" width="58" height="58" x="3" y="3" rx="2.9" ry="2.9"/>
 <path style="opacity:0.1;fill:none;stroke:#000000;stroke-width:6;stroke-linecap:round;stroke-linejoin:round" d="m 31.999966,12.999334 0,13.999321 M 18,20.999333 l 28,0 m -20,24 12,0 m -6.000034,7.99994 0,-31.58 c 4.760948,7.71342 8.527244,19.781164 18.000034,21.6 m -17.971752,9.94012 0,-31.579998 C 27.2673,29.092815 23.472788,41.160557 14,42.979393"/>
 <path style="fill:none;stroke:#3f3f3f;stroke-width:6;stroke-linecap:round;stroke-linejoin:round" d="m 31.999966,51.99994 0,-31.58 C 36.760914,28.13336 40.52721,40.201104 50,42.01994 m -17.971752,9.94012 0,-31.579999 C 27.2673,28.093482 23.472788,40.161224 14,41.98006"/>
 <path style="fill:none;stroke:#3f3f3f;stroke-width:6;stroke-linecap:round;stroke-linejoin:round" d="m 26,44 12,0"/>
 <path style="fill:none;stroke:#3f3f3f;stroke-width:6;stroke-linecap:round;stroke-linejoin:round" d="m 18,20 28,0"/>
 <path style="fill:none;stroke:#3f3f3f;stroke-width:6;stroke-linecap:round;stroke-linejoin:round" d="m 31.999966,12 0,13.999322"/>
 <path style="opacity:0.2;fill:#ffffff" d="M 5.8984375 3 C 4.2918375 3 3 4.2918375 3 5.8984375 L 3 6.8984375 C 3 5.2918375 4.2918375 4 5.8984375 4 L 58.101562 4 C 59.708163 4 61 5.2918375 61 6.8984375 L 61 5.8984375 C 61 4.2918375 59.708163 3 58.101562 3 L 5.8984375 3 z"/>
</svg>
